!!!OTL: Zhengtu gaochang gemingge
!!!ARE: Asia, China,ÿGuangdong Xingning
!! II, 384
!!!SCT: C1975
!!!YEM: Copyright 1995, estate of Helmut Schaffrath.
**kern
*ICvox
*Ivox
*M3/8
*k[f#c#]
*D:
{8b
8b
8dd
=1
16ee
16dd
8dd
8b
=2
8b
8ee
16ee
16dd
=3
8b
4b}
=4
{8b
16dd
16ee
16ee
16dd
=5
8b
16b
16dd
8b
=6
8b
16ee
16ff#
[8dd
=7
4.dd]}
=8
{8b
16ee
16ff#
16ff#
16ee
=9
8b
4b}
=10
{4.b
=11
8b
8b
8dd
=12
16ee
16dd
8dd
8b
=13
8b
8ee
16ee
16dd
=14
8b
4b}
=15
{8b
16dd
16ee
16ee
16dd
=16
8b
16b
16dd
8b
=17
8b
16ee
16ff#
[8dd
=18
4.dd]}
=19
{8b
16ee
16ff#
16ff#
16ee
=20
8b
4b
=21
4.b}
==
!!!AGN: Shange, Luogang shange
!!!AMT: simple triple
!!!AIN: vox
!!!EED: Helmut Schaffrath
!!!EEV: 1.0
*-
!!!ONB: Tied note syntax fixed by Craig Sapp, 2004/05/03/
